X:1
T:The Battering Ram
M:6/8
L:1/8
R:jig
K:D
|: B | dBG BAG | dBG G2B | dBG AGE | GED D2B |
dBG BAG | ~B3 BAG | ~A3 BAB | GED D2 :|
|: B | deg ~a3 | bge edB | deg ~a3 | bge ega |
bag age | ged ege | dBG AGE | GED D2 :|
|: =c | BGG AGG | BGE DGA | BAG AGE | GED Dd=c |
BGG AGA | ~B3 BAG | ~A3 BAB | GED D2:|
